X:447
T:This Morning at Nine
C:John Duffey
N:Transcribed by Jason Hannan
R:bluegrass
L:1/8
Q:1/4=215
M:4/4
K:Bb
z2 (3[dB][dB][dB] [d2B2] e2 | "Bb"[bf][bf] [bf][bf] [bf][bf] dd | [dB][dB] [dB][dB] [eB][eB] [eB][eB] | 
"D#"[BF][BF] [BF][cF] [BF][BF] GG | [GE][GE] [GE][GE] [GE][GE] [GE][GE] | "F"[AF][AF] [AF][AF] [AF][AF] BB | 
cc cc AA AA | "Bb"dd dd ee ff | b4 b2 b2 | bd'2_a a2 bc' | b2 _af e2 ff | "D#"f2 e2 _d3d | 
_de d2 B4 | "F"[f2A2F2] [f2A2F2] FA cA | f2 fa f2 cA | F2 Ac f2 [f2A2F2] | "Bb"B,D BB, DB B,D | 
B8 | 


